library/css/icons/svgs/fi-minus-circle.svg

<svg xmlns="http://www.w3.org/2000/svg" width="100" height="100" viewBox="0 0 100 100"><path fill="#231F20" d="M67.441 44.796h-34.882c-.507 0-.918.411-.918.918v8.572c0 .507.411.918.918.918h34.883c.507 0 .918-.411.918-.918v-8.572c-.001-.507-.412-.918-.919-.918zM50 22.44c15.196 0 27.56 12.366 27.56 27.562 0 15.197-12.364 27.558-27.56 27.558s-27.56-12.361-27.56-27.558c0-15.196 12.364-27.562 27.56-27.562m0-9.94c-20.709 0-37.5 16.793-37.5 37.502 0 20.71 16.791 37.498 37.5 37.498s37.5-16.788 37.5-37.498c0-20.709-16.791-37.502-37.5-37.502z"/></svg>

<?xml version="1.0" encoding="utf-8"?>
<!-- Generator: Adobe Illustrator 17.0.0, SVG Export Plug-In . SVG Version: 6.00 Build 0)  -->
<!DOCTYPE svg PUBLIC "-//W3C//DTD SVG 1.1//EN" "http://www.w3.org/Graphics/SVG/1.1/DTD/svg11.dtd">
<svg version="1.1" id="Layer_1" xmlns="http://www.w3.org/2000/svg" xmlns:xlink="http://www.w3.org/1999/xlink" x="0px" y="0px"
	 width="100px" height="100px" viewBox="0 0 100 100" enable-background="new 0 0 100 100" xml:space="preserve">
<g>
	<path fill="#231F20" d="M67.441,44.796H32.559c-0.507,0-0.918,0.411-0.918,0.918v8.572c0,0.507,0.411,0.918,0.918,0.918h34.883
		c0.507,0,0.918-0.411,0.918-0.918v-8.572C68.359,45.207,67.948,44.796,67.441,44.796z"/>
	<g>
		<path fill="#231F20" d="M50,22.44c15.196,0,27.56,12.366,27.56,27.562C77.56,65.199,65.196,77.56,50,77.56
			S22.44,65.199,22.44,50.002C22.44,34.806,34.804,22.44,50,22.44 M50,12.5c-20.709,0-37.5,16.793-37.5,37.502
			C12.5,70.712,29.291,87.5,50,87.5c20.709,0,37.5-16.788,37.5-37.498C87.5,29.293,70.709,12.5,50,12.5L50,12.5z"/>
	</g>
</g>
</svg>
